X:1
T:Chapel Keithack
T:Chapel Keithack
T:William Marshall
C:William Marshall
%%score { 1 2 }
L:1/8
M:3/4
K:Bb
V:1 treble 
V:2 bass 
V:1
 d4 (c>A) | B4 F2 | (GF) e2 (d/f/e/d/) | d3 c F2 | d4 (c>A) | B4 F2 | (GE)(DC)(B,A,) | [D,F,B,]6 :| %8
 f4 (d/b/a/g/) | Tg>f f2 df | .g.f.e.d.c.B | (d3 c) F2 | f4 (d/b/a/g/) | (g>f) f3 =e/f/ | %14
 ga/b/ a2 g>=e | f4 B/4c/4d/4e/4f/4g/4a/4b/4 | d4 (c>A) | B4 F2 | (G>F) e2 (d/f/e/d/) | (d3 c) F2 | %20
 d4 (c>A) | B4 F2 | (GE)(DC)(B,A,) |{A,} B,6 |] %24
V:2
 B,,2 B,2 F,2 | G,2 E,2 D,2 | E,D, C,2 B,,2 | F,2 F,,2 F,2 | B,,2 B,2 F,2 | G,2 E,2 D,2 | %6
 E,G, F,2 F,,2 | B,,2 F,,2 B,,,2 :| B,[DF] [DF][DF] B,[EG] | B,[DF][DF][DF] B,[DF] | EDGFE=E | %11
 F2 F,2 A,2 | B,[DF][DF][DF] B,[EG] | [B,D]F [A,C]F F,A, | B,2 C2 C,2 | F,2 F,,2 z2 | %16
 B,2 B,,2 F,2 | G,2 E,2 D,2 | E,D, C,2 B,,2 | F,2 F,,2 F,2 | B,,2 B,2 F,2 | G,2 E,2 D,2 | %22
 E,G, F,2 F,,2 | B,,2 F,,2 B,,,2 |] %24

